X:1
T:Mingulay Boat Song
M:3/4
L:1/4
K:E
 B,- C D| E3| E3| B2 G| G3/2- F/2- E| E3| E- D E| F3-| F2 E| G- F E|\
 E3| C3| B,- C D| E3| E3| B2 A| G3/2- F/2- E| E3| B2 G| F3| F2 E| G- F E|\
 E3-| E3-| E3|
